X:160
T:Lawson's favourite
T:Kennaw's reel
R:Reel
O:Ireland
B:Ceol Rince 3 #126
B:Music of Corktown (as Lawson's)
S:Ceol Rince 3 #126
Z:Transcription, chords:Mike Long
M:C|
L:1/8
K:G
"D"d2AG FDDF|"C"Ec~c2 Ec~c2|"D"(3(dcB) (3(cBA) BcAG|"C"FGEF "D"Dgfe|\
"D"d2AG FDDF|"C"~E2AB c2Bc|
"D"(3(dcB) cA BcAG|[1 "C"FGEG "D"FDDc:|[2 "C"FGEG "D"FDD g\
|:"D"fd~d2 fdad|"D"fd~d2 "C"cdeg|"D"fd~d2 fdad|
"C"faeg "D"fdde|\
"D"fd~d2 ad~d2|"C"ec~c2 gc~c2|"D"(3(agf) (3(gfe) fgec|"C"df{b}af g2fe:|
